; generated by Slic3r Prusa Edition 1.38.6-prusa3d-win64 on 2019-02-20 at 11:17:56

; 

; external perimeters extrusion width = 0.45mm
; perimeters extrusion width = 0.45mm
; infill extrusion width = 0.45mm
; solid infill extrusion width = 0.45mm
; top infill extrusion width = 0.40mm
; support material extrusion width = 0.35mm
; first layer extrusion width = 0.70mm

M107
M115 U3.1.0 ; tell printer latest fw version
M83  ; extruder relative mode
M104 S210 ; set extruder temp
M140 S60 ; set bed temp
M190 S60 ; wait for bed temp
M109 S210 ; wait for extruder temp
G28 W ; home all without mesh bed level
G80 ; mesh bed leveling
G1 Y-3.0 F1000.0 ; go outside print area
G92 E0.0
G1 X60.0 E9.0  F1000.0 ; intro line
G1 X100.0 E12.5  F1000.0 ; intro line
G92 E0.0
M900 K30; Filament gcode
G21 ; set units to millimeters
G90 ; use absolute coordinates
M83 ; use relative distances for extrusion
;BEFORE_LAYER_CHANGE
;0.2


G1 E-0.80000 F2100.00000
G1 Z0.600 F7200.000
;AFTER_LAYER_CHANGE
;0.2
G1 X96.867 Y78.719 F7200.000
G1 Z0.200 F7200.000
G1 E0.80000 F2100.00000
M204 S1000
G1 F960
G1 X98.096 Y77.220 E0.10590
G1 X99.539 Y75.926 E0.10590
G1 X101.164 Y74.869 E0.10590
G1 X102.197 Y74.364 E0.06282
G1 X103.280 Y73.952 E0.06329
G1 X113.210 Y70.911 E0.56744
G1 X114.673 Y70.618 E0.08150
G1 X116.160 Y70.499 E0.08150
G1 X133.512 Y70.497 E0.94807
G1 X134.853 Y70.569 E0.07336
G1 X136.178 Y70.783 E0.07336
G1 X137.473 Y71.137 E0.07336
G1 X138.723 Y71.626 E0.07336
G1 X140.341 Y72.508 E0.10064
G1 X145.253 Y75.829 E0.32397
G1 X146.841 Y77.237 E0.11594
G1 X148.171 Y78.891 E0.11594
G1 X149.205 Y80.744 E0.11594
G1 X149.914 Y82.744 E0.11594
G1 X150.277 Y84.817 E0.11499
G1 X150.427 Y88.416 E0.19683
G1 X150.426 Y121.657 E1.81616
G1 X150.304 Y124.837 E0.17385
G1 X150.140 Y126.222 E0.07623
G1 X149.708 Y127.959 E0.09777
G1 X149.035 Y129.617 E0.09777
G1 X148.261 Y130.973 E0.08533
G1 X147.320 Y132.231 E0.08581
G1 X146.237 Y133.356 E0.08533
G1 X145.016 Y134.343 E0.08581
G1 X143.689 Y135.168 E0.08533
G1 X142.263 Y135.825 E0.08581
G1 X140.766 Y136.300 E0.08581
G1 X139.222 Y136.586 E0.08581
G1 X137.733 Y136.678 E0.08150
G1 X106.816 Y136.672 E1.68919
G1 X105.487 Y136.559 E0.07288
G1 X104.169 Y136.304 E0.07336
G1 X102.885 Y135.911 E0.07336
G1 X101.650 Y135.384 E0.07336
G1 X100.272 Y134.595 E0.08676
G1 X98.997 Y133.634 E0.08724
G1 X97.853 Y132.520 E0.08724
G1 X96.864 Y131.277 E0.08676
G1 X96.039 Y129.920 E0.08676
G1 X95.388 Y128.463 E0.08724
G1 X94.925 Y126.934 E0.08724
G1 X94.661 Y125.368 E0.08676
G1 X94.592 Y124.072 E0.07096
G1 X94.596 Y85.608 E2.10153
G1 X94.705 Y84.261 E0.07383
G1 X94.959 Y82.924 E0.07431
G1 X95.353 Y81.632 E0.07383
G1 X95.886 Y80.380 E0.07431
G1 X96.837 Y78.770 E0.10215
G1 X97.403 Y79.109 F7200.000
G1 F960
G1 X98.623 Y77.619 E0.10523
G1 X100.005 Y76.397 E0.10078
G1 X101.559 Y75.402 E0.10078
G1 X103.513 Y74.567 E0.11614
G1 X113.448 Y71.528 E0.56761
G1 X114.815 Y71.262 E0.07608
G1 X116.195 Y71.156 E0.07562
G1 X133.512 Y71.154 E0.94615
G1 X134.791 Y71.223 E0.07002
G1 X136.065 Y71.431 E0.07049
G1 X137.300 Y71.772 E0.07002
G1 X138.500 Y72.246 E0.07049
G1 X140.004 Y73.073 E0.09379
G1 X144.879 Y76.370 E0.32156
G1 X146.390 Y77.716 E0.11055
G1 X147.653 Y79.298 E0.11055
G1 X148.631 Y81.069 E0.11055
G1 X149.297 Y82.980 E0.11055
G1 X149.626 Y84.916 E0.10730
G1 X149.770 Y88.433 E0.19232
G1 X149.769 Y121.642 E1.81445
G1 X149.649 Y124.787 E0.17192
G1 X149.493 Y126.110 E0.07282
G1 X149.074 Y127.784 E0.09426
G1 X148.419 Y129.380 E0.09426
G1 X147.676 Y130.667 E0.08121
G1 X146.779 Y131.852 E0.08121
G1 X145.742 Y132.917 E0.08121
G1 X144.581 Y133.846 E0.08121
G1 X143.314 Y134.623 E0.08121
G1 X141.961 Y135.237 E0.08121
G1 X140.542 Y135.679 E0.08121
G1 X139.079 Y135.942 E0.08121
G1 X137.731 Y136.021 E0.07375
G1 X106.844 Y136.015 E1.68757
G1 X105.567 Y135.907 E0.07002
G1 X104.301 Y135.660 E0.07049
G1 X103.068 Y135.278 E0.07049
G1 X101.892 Y134.770 E0.07002
G1 X100.583 Y134.013 E0.08261
G1 X99.387 Y133.103 E0.08214
G1 X98.308 Y132.043 E0.08261
G1 X97.372 Y130.856 E0.08261
G1 X96.592 Y129.560 E0.08261
G1 X95.983 Y128.177 E0.08261
G1 X95.552 Y126.727 E0.08261
G1 X95.308 Y125.235 E0.08261
G1 X95.249 Y124.066 E0.06396
G1 X95.253 Y85.634 E2.09980
G1 X95.358 Y84.339 E0.07095
G1 X95.604 Y83.056 E0.07142
G1 X95.986 Y81.814 E0.07095
G1 X96.500 Y80.622 E0.07095
G1 X97.373 Y79.160 E0.09300
G1 X97.937 Y79.502 F7200.000
G1 F960
G1 X98.021 Y79.363 E0.00883
G1 X99.148 Y78.022 E0.09570
G1 X100.468 Y76.871 E0.09570
G1 X101.950 Y75.938 E0.09570
G1 X103.740 Y75.184 E0.10611
G1 X113.690 Y72.145 E0.56843
G1 X114.947 Y71.907 E0.06988
G1 X116.231 Y71.812 E0.07034
G1 X133.511 Y71.811 E0.94415
G1 X134.731 Y71.878 E0.06671
G1 X135.944 Y72.077 E0.06716
G1 X137.120 Y72.405 E0.06671
G1 X138.262 Y72.860 E0.06716
G1 X139.657 Y73.631 E0.08710
G1 X144.498 Y76.906 E0.31936
G1 X145.934 Y78.190 E0.10521
G1 X147.130 Y79.699 E0.10521
G1 X148.054 Y81.388 E0.10521
G1 X148.677 Y83.210 E0.10521
G1 X148.975 Y85.012 E0.09978
G1 X149.113 Y88.449 E0.18796
G1 X149.112 Y121.636 E1.81321
G1 X148.993 Y124.737 E0.16956
G1 X148.846 Y125.991 E0.06898
G1 X148.442 Y127.602 E0.09072
G1 X147.807 Y129.136 E0.09072
G1 X147.099 Y130.348 E0.07668
G1 X146.247 Y131.463 E0.07668
G1 X145.264 Y132.464 E0.07668
G1 X144.157 Y133.341 E0.07713
G1 X142.957 Y134.069 E0.07668
G1 X141.668 Y134.645 E0.07713
G1 X140.326 Y135.055 E0.07668
G1 X138.935 Y135.297 E0.07713
G1 X137.724 Y135.364 E0.06626
G1 X106.871 Y135.359 E1.68571
G1 X105.646 Y135.254 E0.06716
G1 X104.440 Y135.017 E0.06716
G1 X103.267 Y134.651 E0.06716
G1 X102.132 Y134.156 E0.06762
G1 X100.900 Y133.434 E0.07804
G1 X99.768 Y132.563 E0.07804
G1 X98.754 Y131.556 E0.07804
G1 X97.876 Y130.430 E0.07804
G1 X97.147 Y129.202 E0.07804
G1 X96.578 Y127.892 E0.07804
G1 X96.179 Y126.520 E0.07804
G1 X95.956 Y125.109 E0.07804
G1 X95.910 Y85.659 E2.15541
G1 X96.010 Y84.417 E0.06807
G1 X96.247 Y83.194 E0.06807
G1 X96.616 Y82.004 E0.06807
G1 X97.114 Y80.862 E0.06807
G1 X97.906 Y79.553 E0.08360
G1 X98.592 Y79.694 F7200.000
G1 F960
G1 X99.668 Y78.430 E0.09068
G1 X100.927 Y77.349 E0.09068
G1 X102.339 Y76.476 E0.09068
G1 X103.969 Y75.801 E0.09639
G1 X113.921 Y72.765 E0.56846
G1 X115.086 Y72.552 E0.06474
G1 X116.260 Y72.469 E0.06430
G1 X133.511 Y72.468 E0.94253
G1 X134.678 Y72.533 E0.06386
G1 X135.823 Y72.724 E0.06342
G1 X136.941 Y73.038 E0.06342
G1 X138.025 Y73.475 E0.06386
G1 X139.321 Y74.196 E0.08101
G1 X144.117 Y77.442 E0.31643
G1 X145.472 Y78.658 E0.09946
G1 X146.604 Y80.094 E0.09990
G1 X147.474 Y81.702 E0.09990
G1 X148.056 Y83.435 E0.09990
G1 X148.324 Y85.106 E0.09244
G1 X148.456 Y88.465 E0.18369
G1 X148.455 Y121.622 E1.81154
G1 X148.338 Y124.689 E0.16769
G1 X148.200 Y125.874 E0.06518
G1 X147.810 Y127.421 E0.08717
G1 X147.194 Y128.892 E0.08717
G1 X146.521 Y130.030 E0.07222
G1 X145.708 Y131.082 E0.07266
G1 X144.776 Y132.019 E0.07222
G1 X143.728 Y132.838 E0.07266
G1 X142.594 Y133.517 E0.07222
G1 X141.376 Y134.053 E0.07266
G1 X140.110 Y134.431 E0.07222
G1 X138.798 Y134.650 E0.07266
G1 X137.719 Y134.707 E0.05902
G1 X106.897 Y134.702 E1.68400
G1 X105.725 Y134.602 E0.06430
G1 X104.578 Y134.374 E0.06386
G1 X103.456 Y134.020 E0.06430
G1 X102.380 Y133.544 E0.06430
G1 X101.221 Y132.859 E0.07354
G1 X100.159 Y132.032 E0.07354
G1 X99.209 Y131.079 E0.07354
G1 X98.387 Y130.013 E0.07354
G1 X97.706 Y128.852 E0.07354
G1 X97.177 Y127.614 E0.07354
G1 X96.807 Y126.320 E0.07354
G1 X96.604 Y124.989 E0.07354
G1 X96.566 Y85.676 E2.14795
G1 X96.663 Y84.495 E0.06474
G1 X96.890 Y83.332 E0.06474
G1 X97.244 Y82.201 E0.06474
G1 X97.726 Y81.110 E0.06518
G1 X98.561 Y79.745 E0.08740
G1 F5760
G1 X99.668 Y78.430 E-0.59539
G1 F5760
G1 X100.029 Y78.121 E-0.16461
G1 E-0.04000 F2100.00000
G1 Z0.800 F7200.000
G1 X116.419 Y83.933 F7200.000
G1 Z0.200 F7200.000
G1 E0.80000 F2100.00000
G1 F960
G1 X116.419 Y83.125 E0.04416
G1 X117.733 Y83.125 E0.07180
G1 X117.733 Y84.829 E0.09311
G1 X118.255 Y85.351 E0.04035
G1 X119.047 Y85.351 E0.04327
G1 X119.047 Y83.125 E0.12164
G1 X120.362 Y83.125 E0.07180
G1 X120.362 Y85.351 E0.12164
G1 X121.676 Y85.351 E0.07180
G1 X121.676 Y83.125 E0.12164
G1 X122.990 Y83.125 E0.07180
G1 X122.990 Y91.082 E0.43474
G1 X124.304 Y91.082 E0.07180
G1 X124.304 Y83.125 E0.43474
G1 X125.618 Y83.125 E0.07180
G1 X125.618 Y91.082 E0.43474
G1 X126.932 Y91.082 E0.07180
G1 X126.932 Y83.125 E0.43474
G1 X128.247 Y83.125 E0.07180
G1 X128.247 Y85.351 E0.12164
G1 X129.561 Y85.351 E0.07180
G1 X129.561 Y83.125 E0.12164
G1 X130.875 Y83.125 E0.07180
G1 X130.875 Y85.351 E0.12164
G1 X131.745 Y85.351 E0.04752
G1 X132.189 Y84.907 E0.03434
G1 X132.189 Y83.125 E0.09736
G1 X133.503 Y83.125 E0.07180
G1 X133.503 Y84.011 E0.04841
G1 F5760
G1 X133.503 Y83.125 E-0.30686
G1 F5760
G1 X132.195 Y83.125 E-0.45314
G1 E-0.04000 F2100.00000
G1 Z0.800 F7200.000
G1 X132.189 Y112.208 F7200.000
G1 Z0.200 F7200.000
G1 E0.80000 F2100.00000
G1 F960
G1 X132.189 Y98.270 E0.76154
G1 X131.990 Y98.010 E0.01788
G1 X131.823 Y97.868 E0.01200
G1 X131.635 Y97.753 E0.01200
G1 X131.433 Y97.669 E0.01200
G1 X131.219 Y97.618 E0.01200
G1 X130.875 Y97.599 E0.01883
G1 X130.875 Y112.401 E0.80878
G1 X129.561 Y112.401 E0.07180
G1 X129.561 Y97.585 E0.80949
G1 X129.320 Y97.563 E0.01319
G1 X128.925 Y97.464 E0.02228
G1 X128.591 Y97.326 E0.01972
G1 X128.247 Y97.119 E0.02197
G1 X128.247 Y112.401 E0.83497
G1 X126.932 Y112.401 E0.07180
G1 X126.932 Y92.353 E1.09536
G1 X125.618 Y92.353 E0.07180
G1 X125.618 Y112.401 E1.09536
G1 X124.304 Y112.401 E0.07180
G1 X124.304 Y92.353 E1.09536
G1 X122.990 Y92.353 E0.07180
G1 X122.990 Y112.401 E1.09536
G1 X121.676 Y112.401 E0.07180
G1 X121.676 Y97.167 E0.83237
G1 X121.409 Y97.326 E0.01699
G1 X121.031 Y97.479 E0.02228
G1 X120.680 Y97.563 E0.01972
G1 X120.362 Y97.592 E0.01745
G1 X120.362 Y112.401 E0.80916
G1 X119.047 Y112.401 E0.07180
G1 X119.047 Y97.599 E0.80878
G1 X118.781 Y97.618 E0.01459
G1 X118.567 Y97.669 E0.01200
G1 X118.365 Y97.753 E0.01200
G1 X118.238 Y97.831 E0.00814
G1 X118.238 Y99.275 E0.07888
G1 X117.733 Y99.275 E0.02755
G1 X117.733 Y112.121 E0.70186
G1 F5760
G1 X117.733 Y109.926 E-0.76000
G1 E-0.04000 F2100.00000
G1 Z0.800 F7200.000
G1 X121.243 Y86.957 F7200.000
G1 Z0.200 F7200.000
G1 E0.80000 F2100.00000
G1 F960
G1 X121.243 Y94.960 E0.43727
G1 X121.228 Y95.155 E0.01065
G1 X121.130 Y95.453 E0.01712
G1 X120.950 Y95.700 E0.01671
G1 X120.832 Y95.801 E0.00849
G1 X120.556 Y95.941 E0.01692
G1 X120.405 Y95.978 E0.00849
G1 X120.210 Y95.993 E0.01065
G1 X118.960 Y95.993 E0.06830
G1 X118.529 Y96.027 E0.02364
G1 X118.070 Y96.137 E0.02581
G1 X117.633 Y96.318 E0.02581
G1 X117.231 Y96.565 E0.02581
G1 X116.871 Y96.871 E0.02581
G1 X116.565 Y97.231 E0.02581
G1 X116.318 Y97.633 E0.02581
G1 X116.137 Y98.070 E0.02581
G1 X116.027 Y98.529 E0.02581
G1 X115.993 Y98.960 E0.02364
G1 X115.993 Y111.043 E0.66017
G1 X116.031 Y111.490 E0.02449
G1 X116.137 Y111.930 E0.02474
G1 X116.318 Y112.367 E0.02581
G1 X116.565 Y112.769 E0.02581
G1 X116.871 Y113.129 E0.02581
G1 X117.231 Y113.435 E0.02581
G1 X117.637 Y113.684 E0.02601
G1 X118.089 Y113.867 E0.02666
G1 X118.529 Y113.973 E0.02474
G1 X118.960 Y114.007 E0.02364
G1 X131.040 Y114.007 E0.65996
G1 X131.471 Y113.973 E0.02364
G1 X131.930 Y113.863 E0.02581
G1 X132.370 Y113.681 E0.02601
G1 X132.784 Y113.423 E0.02666
G1 X133.129 Y113.129 E0.02474
G1 X133.435 Y112.769 E0.02581
G1 X133.682 Y112.367 E0.02581
G1 X133.863 Y111.930 E0.02581
G1 X133.973 Y111.471 E0.02581
G1 X134.007 Y111.040 E0.02364
G1 X134.007 Y98.960 E0.65996
G1 X133.973 Y98.525 E0.02385
G1 X133.855 Y98.052 E0.02665
G1 X133.682 Y97.633 E0.02474
G1 X133.435 Y97.231 E0.02581
G1 X133.129 Y96.871 E0.02581
G1 X132.769 Y96.565 E0.02581
G1 X132.367 Y96.318 E0.02581
G1 X131.930 Y96.137 E0.02581
G1 X131.471 Y96.027 E0.02581
G1 X131.040 Y95.993 E0.02364
G1 X129.790 Y95.993 E0.06830
G1 X129.595 Y95.978 E0.01065
G1 X129.444 Y95.941 E0.00849
G1 X129.168 Y95.801 E0.01692
G1 X129.050 Y95.700 E0.00849
G1 X128.874 Y95.460 E0.01627
G1 X128.808 Y95.302 E0.00933
G1 X128.772 Y95.155 E0.00828
G1 X128.757 Y94.960 E0.01065
G1 X128.757 Y86.957 E0.43727
G1 X136.693 Y86.957 E0.43359
G1 X136.693 Y89.587 E0.14369
G1 X136.793 Y89.587 E0.00546
G1 X136.793 Y89.663 E0.00414
G1 X136.693 Y89.663 E0.00546
G1 X136.693 Y97.902 E0.45016
G1 X136.793 Y97.902 E0.00546
G1 X136.793 Y112.098 E0.77561
G1 X136.693 Y112.098 E0.00546
G1 X136.693 Y120.337 E0.45016
G1 X136.793 Y120.337 E0.00546
G1 X136.793 Y120.413 E0.00414
G1 X136.693 Y120.413 E0.00546
G1 X136.693 Y123.043 E0.14369
G1 X108.227 Y123.043 E1.55527
G1 X108.227 Y86.957 E1.97160
G1 X121.183 Y86.957 E0.70786
G1 X121.900 Y86.300 F7200.000
G1 F960
G1 X121.900 Y94.986 E0.47459
G1 X121.879 Y95.258 E0.01489
G1 X121.822 Y95.496 E0.01335
G1 X121.719 Y95.750 E0.01498
G1 X121.584 Y95.969 E0.01407
G1 X121.416 Y96.166 E0.01414
G1 X121.219 Y96.334 E0.01414
G1 X120.999 Y96.469 E0.01414
G1 X120.760 Y96.568 E0.01414
G1 X120.508 Y96.629 E0.01414
G1 X120.236 Y96.650 E0.01489
G1 X118.986 Y96.650 E0.06830
G1 X118.632 Y96.678 E0.01940
G1 X118.273 Y96.764 E0.02016
G1 X117.933 Y96.905 E0.02016
G1 X117.618 Y97.098 E0.02016
G1 X117.338 Y97.338 E0.02016
G1 X117.098 Y97.618 E0.02016
G1 X116.905 Y97.933 E0.02016
G1 X116.764 Y98.273 E0.02016
G1 X116.678 Y98.632 E0.02016
G1 X116.650 Y98.986 E0.01940
G1 X116.650 Y111.015 E0.65721
G1 X116.682 Y111.384 E0.02025
G1 X116.764 Y111.727 E0.01923
G1 X116.905 Y112.067 E0.02016
G1 X117.098 Y112.382 E0.02016
G1 X117.338 Y112.662 E0.02016
G1 X117.618 Y112.902 E0.02016
G1 X117.934 Y113.096 E0.02023
G1 X118.290 Y113.240 E0.02100
G1 X118.632 Y113.322 E0.01923
G1 X118.986 Y113.350 E0.01940
G1 X131.014 Y113.350 E0.65714
G1 X131.368 Y113.322 E0.01940
G1 X131.727 Y113.236 E0.02016
G1 X132.069 Y113.094 E0.02023
G1 X132.395 Y112.891 E0.02100
G1 X132.662 Y112.662 E0.01923
G1 X132.902 Y112.382 E0.02016
G1 X133.095 Y112.067 E0.02016
G1 X133.236 Y111.727 E0.02016
G1 X133.322 Y111.368 E0.02016
G1 X133.350 Y111.014 E0.01940
G1 X133.350 Y98.986 E0.65714
G1 X133.322 Y98.631 E0.01947
G1 X133.230 Y98.258 E0.02100
G1 X133.095 Y97.933 E0.01923
G1 X132.902 Y97.618 E0.02016
G1 X132.662 Y97.338 E0.02016
G1 X132.382 Y97.098 E0.02016
G1 X132.067 Y96.905 E0.02016
G1 X131.727 Y96.764 E0.02016
G1 X131.368 Y96.678 E0.02016
G1 X131.014 Y96.650 E0.01940
G1 X129.764 Y96.650 E0.06830
G1 X129.492 Y96.629 E0.01489
G1 X129.240 Y96.568 E0.01414
G1 X129.001 Y96.469 E0.01414
G1 X128.781 Y96.334 E0.01414
G1 X128.584 Y96.166 E0.01414
G1 X128.416 Y95.969 E0.01414
G1 X128.288 Y95.761 E0.01335
G1 X128.181 Y95.508 E0.01498
G1 X128.121 Y95.258 E0.01407
G1 X128.100 Y94.986 E0.01489
G1 X128.100 Y86.300 E0.47459
G1 X137.350 Y86.300 E0.50539
G1 X137.350 Y88.930 E0.14369
G1 X137.450 Y88.930 E0.00546
G1 X137.450 Y90.320 E0.07594
G1 X137.350 Y90.320 E0.00546
G1 X137.350 Y97.245 E0.37836
G1 X137.450 Y97.245 E0.00546
G1 X137.450 Y112.755 E0.84741
G1 X137.350 Y112.755 E0.00546
G1 X137.350 Y119.680 E0.37836
G1 X137.450 Y119.680 E0.00546
G1 X137.450 Y121.070 E0.07594
G1 X137.350 Y121.070 E0.00546
G1 X137.350 Y123.700 E0.14369
G1 X107.570 Y123.700 E1.62707
G1 X107.570 Y86.300 E2.04340
G1 X121.840 Y86.300 E0.77966
G1 X121.851 Y86.697 F7200.000
G1 F5760
G1 X121.855 Y88.494 E-0.76000
G1 E-0.04000 F2100.00000
G1 Z0.800 F7200.000
G1 X121.046 Y88.082 F7200.000
G1 Z0.200 F7200.000
G1 E0.80000 F2100.00000
G1 F960
G1 X120.414 Y87.450 E0.04939
G1 X119.474 Y87.450 E0.05191
G1 X120.750 Y88.726 E0.09970
G1 X120.750 Y89.666 E0.05191
G1 X118.534 Y87.450 E0.17312
G1 X117.595 Y87.450 E0.05191
G1 X120.750 Y90.605 E0.24653
G1 X120.750 Y91.545 E0.05191
G1 X116.655 Y87.450 E0.31994
G1 X115.716 Y87.450 E0.05191
G1 X120.750 Y92.484 E0.39336
G1 X120.750 Y93.424 E0.05191
G1 X114.776 Y87.450 E0.46677
G1 X113.836 Y87.450 E0.05191
G1 X120.750 Y94.364 E0.54018
G1 X120.750 Y94.941 E0.03190
G1 X120.739 Y95.078 E0.00756
G1 X120.684 Y95.237 E0.00934
G1 X112.897 Y87.450 E0.60843
G1 X111.957 Y87.450 E0.05191
G1 X120.007 Y95.500 E0.62897
G1 X119.068 Y95.500 E0.05191
G1 X111.017 Y87.450 E0.62897
G1 X110.078 Y87.450 E0.05191
G1 X118.222 Y95.594 E0.63629
G1 X117.917 Y95.667 E0.01731
G1 X117.520 Y95.832 E0.02375
G1 X109.138 Y87.450 E0.65486
G1 X108.720 Y87.450 E0.02311
G1 X108.720 Y87.971 E0.02880
G1 X116.926 Y96.177 E0.64113
