; generated by Slic3r Prusa Edition 1.38.6-prusa3d-win64 on 2019-01-14 at 11:39:36

; 

; external perimeters extrusion width = 0.45mm
; perimeters extrusion width = 0.45mm
; infill extrusion width = 0.45mm
; solid infill extrusion width = 0.45mm
; top infill extrusion width = 0.40mm
; first layer extrusion width = 0.70mm

M107
M115 U3.1.0 ; tell printer latest fw version
M83  ; extruder relative mode
M104 S210 ; set extruder temp
M140 S60 ; set bed temp
M190 S60 ; wait for bed temp
M109 S210 ; wait for extruder temp
G28 W ; home all without mesh bed level
G80 ; mesh bed leveling
G1 Y-3.0 F1000.0 ; go outside print area
G92 E0.0
G1 X60.0 E9.0  F1000.0 ; intro line
G1 X100.0 E12.5  F1000.0 ; intro line
G92 E0.0
M900 K30; Filament gcode
G21 ; set units to millimeters
G90 ; use absolute coordinates
M83 ; use relative distances for extrusion
;BEFORE_LAYER_CHANGE
;0.2


G1 E-0.80000 F2100.00000
G1 Z0.600 F7200.000
;AFTER_LAYER_CHANGE
;0.2
G1 X91.155 Y40.633 F7200.000
G1 Z0.200 F7200.000
G1 E0.80000 F2100.00000
M204 S1000
G1 F960
G1 X91.928 Y39.097 E0.09394
G1 X93.172 Y37.192 E0.12431
G1 X94.866 Y35.254 E0.14061
G1 X96.754 Y33.637 E0.13582
G1 X98.722 Y32.376 E0.12768
G1 X101.002 Y31.325 E0.13721
G1 X102.715 Y30.776 E0.09825
G1 X104.736 Y30.353 E0.11281
G1 X107.057 Y30.173 E0.12722
G1 X142.759 Y30.172 E1.95060
G1 X144.628 Y30.281 E0.10230
G1 X145.768 Y30.433 E0.06282
G1 X147.592 Y30.854 E0.10230
G1 X148.859 Y31.270 E0.07288
G1 X150.415 Y31.927 E0.09224
G1 X151.581 Y32.555 E0.07240
G1 X153.140 Y33.559 E0.10132
G1 X154.607 Y34.765 E0.10373
G1 X155.586 Y35.722 E0.07479
G1 X156.791 Y37.143 E0.10181
G1 X157.461 Y38.099 E0.06377
G1 X158.389 Y39.665 E0.09944
G1 X158.866 Y40.682 E0.06138
G1 X159.548 Y42.453 E0.10370
G1 X160.013 Y44.266 E0.10228
G1 X160.221 Y45.468 E0.06665
G1 X160.378 Y47.783 E0.12675
G1 X160.378 Y162.253 E6.25421
G1 X160.190 Y164.767 E0.13775
G1 X159.693 Y167.050 E0.12768
G1 X158.818 Y169.432 E0.13864
G1 X157.991 Y171.039 E0.09873
G1 X156.698 Y172.975 E0.12716
G1 X155.639 Y174.220 E0.08936
G1 X154.828 Y175.036 E0.06282
G1 X152.969 Y176.564 E0.13150
G1 X150.784 Y177.891 E0.13968
G1 X148.414 Y178.893 E0.14059
G1 X146.138 Y179.495 E0.12863
G1 X144.811 Y179.702 E0.07336
G1 X142.864 Y179.828 E0.10663
G1 X107.153 Y179.828 E1.95107
G1 X104.666 Y179.638 E0.13631
G1 X102.400 Y179.143 E0.12673
G1 X101.231 Y178.764 E0.06713
G1 X99.625 Y178.092 E0.09514
G1 X97.335 Y176.772 E0.14439
G1 X96.400 Y176.088 E0.06329
G1 X95.152 Y175.017 E0.08985
G1 X93.545 Y173.273 E0.12957
G1 X92.800 Y172.296 E0.06713
G1 X92.014 Y171.046 E0.08070
G1 X91.134 Y169.318 E0.10590
G1 X90.300 Y167.024 E0.13338
G1 X89.915 Y165.390 E0.09175
G1 X89.733 Y164.104 E0.07096
G1 X89.622 Y162.208 E0.10374
G1 X89.622 Y47.739 E6.25422
G1 X89.810 Y45.233 E0.13728
G1 X90.307 Y42.950 E0.12767
G1 X91.134 Y40.689 E0.13154
G1 X91.753 Y40.917 F7200.000
G1 F960
G1 X92.557 Y39.326 E0.09738
G1 X93.783 Y37.477 E0.12123
G1 X95.551 Y35.508 E0.14455
G1 X97.344 Y34.020 E0.12733
G1 X99.401 Y32.753 E0.13200
G1 X101.674 Y31.773 E0.13525
G1 X103.706 Y31.213 E0.11518
G1 X105.137 Y30.964 E0.07935
G1 X107.131 Y30.829 E0.10916
G1 X142.759 Y30.829 E1.94659
G1 X144.565 Y30.935 E0.09888
G1 X145.649 Y31.079 E0.05976
G1 X147.421 Y31.489 E0.09935
G1 X148.630 Y31.886 E0.06955
G1 X150.125 Y32.517 E0.08863
G1 X151.246 Y33.120 E0.06955
G1 X152.753 Y34.090 E0.09793
G1 X154.183 Y35.268 E0.10122
G1 X155.111 Y36.176 E0.07095
G1 X156.280 Y37.558 E0.09887
G1 X156.916 Y38.468 E0.06069
G1 X157.817 Y39.989 E0.09657
G1 X158.927 Y42.670 E0.15852
G1 X159.377 Y44.431 E0.09933
G1 X159.575 Y45.594 E0.06442
G1 X159.721 Y47.783 E0.11989
G1 X159.721 Y162.251 E6.25412
G1 X159.539 Y164.677 E0.13293
G1 X159.057 Y166.888 E0.12360
G1 X158.212 Y169.177 E0.13334
G1 X157.421 Y170.710 E0.09426
G1 X156.180 Y172.570 E0.12216
G1 X155.146 Y173.786 E0.08722
G1 X154.361 Y174.573 E0.06069
G1 X152.579 Y176.034 E0.12592
G1 X150.454 Y177.322 E0.13574
G1 X148.173 Y178.281 E0.13524
G1 X145.943 Y178.864 E0.12592
G1 X144.710 Y179.052 E0.06815
G1 X142.844 Y179.171 E0.10216
G1 X107.156 Y179.171 E1.94985
G1 X104.756 Y178.987 E0.13153
G1 X102.562 Y178.507 E0.12267
G1 X101.449 Y178.145 E0.06396
G1 X99.890 Y177.490 E0.09238
G1 X97.681 Y176.213 E0.13940
G1 X96.799 Y175.566 E0.05976
G1 X95.582 Y174.520 E0.08770
G1 X94.041 Y172.842 E0.12451
G1 X93.289 Y171.846 E0.06816
G1 X92.426 Y170.453 E0.08953
G1 X91.435 Y168.326 E0.12821
G1 X90.862 Y166.573 E0.10078
G1 X90.543 Y165.175 E0.07834
G1 X90.384 Y164.007 E0.06442
G1 X90.279 Y162.208 E0.09842
G1 X90.279 Y47.749 E6.25366
G1 X90.461 Y45.323 E0.13293
G1 X90.943 Y43.113 E0.12359
G1 X91.732 Y40.973 E0.12458
G1 X92.348 Y41.201 F7200.000
G1 F960
G1 X92.390 Y41.085 E0.00674
G1 X93.127 Y39.653 E0.08801
G1 X94.307 Y37.872 E0.11673
G1 X96.026 Y35.964 E0.14030
G1 X97.742 Y34.543 E0.12174
G1 X99.741 Y33.317 E0.12810
G1 X101.934 Y32.378 E0.13035
G1 X103.932 Y31.835 E0.11311
G1 X105.250 Y31.613 E0.07306
G1 X107.151 Y31.486 E0.10408
G1 X142.758 Y31.486 E1.94546
G1 X145.540 Y31.727 E0.15257
G1 X147.250 Y32.123 E0.09591
G1 X148.402 Y32.502 E0.06626
G1 X149.844 Y33.111 E0.08548
G1 X150.911 Y33.686 E0.06626
G1 X152.373 Y34.626 E0.09498
G1 X153.759 Y35.770 E0.09817
G1 X154.642 Y36.637 E0.06762
G1 X155.770 Y37.972 E0.09544
G1 X157.245 Y40.313 E0.15120
G1 X158.309 Y42.894 E0.15253
G1 X158.740 Y44.595 E0.09589
G1 X158.928 Y45.718 E0.06218
G1 X159.064 Y47.784 E0.11316
G1 X159.064 Y162.250 E6.25399
G1 X158.887 Y164.597 E0.12858
G1 X158.418 Y166.733 E0.11948
G1 X158.086 Y167.752 E0.05855
G1 X157.492 Y169.181 E0.08456
G1 X156.438 Y171.058 E0.11763
G1 X155.483 Y172.386 E0.08937
G1 X153.888 Y174.115 E0.12851
G1 X152.183 Y175.510 E0.12037
G1 X150.133 Y176.748 E0.13083
G1 X147.925 Y177.671 E0.13080
G1 X145.751 Y178.233 E0.12265
G1 X144.617 Y178.400 E0.06263
G1 X142.832 Y178.514 E0.09773
G1 X107.150 Y178.514 E1.94953
G1 X104.837 Y178.334 E0.12676
G1 X102.717 Y177.868 E0.11858
G1 X101.667 Y177.525 E0.06036
G1 X100.148 Y176.886 E0.09004
G1 X98.028 Y175.655 E0.13394
G1 X96.013 Y174.024 E0.14167
G1 X94.532 Y172.404 E0.11991
G1 X93.818 Y171.455 E0.06490
G1 X92.983 Y170.103 E0.08682
G1 X92.032 Y168.052 E0.12352
G1 X91.495 Y166.393 E0.09525
G1 X91.187 Y165.046 E0.07548
G1 X91.036 Y163.918 E0.06218
G1 X90.936 Y162.216 E0.09318
G1 X90.936 Y47.750 E6.25399
G1 X91.113 Y45.403 E0.12858
G1 X91.582 Y43.268 E0.11947
G1 X92.327 Y41.257 E0.11713
G1 F5760
G1 X92.390 Y41.085 E-0.06352
G1 F5760
G1 X93.127 Y39.653 E-0.55790
G1 F5760
G1 X93.348 Y39.319 E-0.13858
G1 E-0.04000 F2100.00000
G1 Z0.800 F7200.000
G1 X94.832 Y38.268 F7200.000
G1 Z0.200 F7200.000
G1 E0.80000 F2100.00000
G1 F960
G1 X96.500 Y36.420 E0.13597
G1 X98.147 Y35.062 E0.11664
G1 X100.079 Y33.882 E0.12369
G1 X102.192 Y32.983 E0.12544
G1 X104.145 Y32.461 E0.11047
G1 X105.354 Y32.263 E0.06694
G1 X107.163 Y32.143 E0.09906
G1 X142.758 Y32.143 E1.94478
G1 X145.416 Y32.372 E0.14575
G1 X147.080 Y32.758 E0.09333
G1 X148.167 Y33.116 E0.06254
G1 X149.563 Y33.705 E0.08277
G1 X150.571 Y34.248 E0.06254
G1 X151.987 Y35.158 E0.09199
G1 X153.335 Y36.272 E0.09553
G1 X154.168 Y37.092 E0.06386
G1 X155.259 Y38.385 E0.09244
G1 X156.672 Y40.636 E0.14523
G1 X157.685 Y43.102 E0.14564
G1 X158.101 Y44.750 E0.09288
G1 X158.279 Y45.832 E0.05990
G1 X158.407 Y47.786 E0.10699
G1 X158.407 Y162.240 E6.25337
G1 X158.236 Y164.507 E0.12422
G1 X157.781 Y166.569 E0.11533
G1 X156.890 Y168.918 E0.13728
G1 X155.873 Y170.721 E0.11309
G1 X154.969 Y171.977 E0.08453
G1 X153.428 Y173.645 E0.12408
G1 X151.794 Y174.980 E0.11531
G1 X149.806 Y176.177 E0.12678
G1 X147.686 Y177.058 E0.12543
G1 X145.563 Y177.600 E0.11972
G1 X144.526 Y177.749 E0.05726
G1 X142.821 Y177.857 E0.09334
G1 X107.161 Y177.857 E1.94829
G1 X104.927 Y177.683 E0.12246
G1 X102.881 Y177.231 E0.11445
G1 X101.885 Y176.904 E0.05726
G1 X100.422 Y176.288 E0.08675
G1 X98.383 Y175.101 E0.12892
G1 X96.450 Y173.533 E0.13598
G1 X95.028 Y171.974 E0.11531
G1 X94.356 Y171.077 E0.06122
G1 X93.544 Y169.761 E0.08451
G1 X92.633 Y167.786 E0.11881
G1 X92.275 Y166.767 E0.05902
G1 X91.947 Y165.462 E0.07350
G1 X91.688 Y163.831 E0.09024
G1 X91.593 Y162.214 E0.08848
G1 X91.593 Y47.752 E6.25382
G1 X91.764 Y45.492 E0.12379
G1 X92.219 Y43.431 E0.11532
G1 X92.999 Y41.333 E0.12233
G1 X93.698 Y39.979 E0.08321
G1 X94.799 Y38.318 E0.10893
G1 F5760
G1 X96.264 Y36.684 E-0.76000
G1 E-0.04000 F2100.00000
G1 Z0.800 F7200.000
G1 X120.643 Y69.108 F7200.000
G1 Z0.200 F7200.000
G1 E0.80000 F2100.00000
G1 F960
G1 X129.358 Y69.108 E0.47618
G1 X129.368 Y68.085 E0.05587
G1 X129.402 Y67.654 E0.02364
G1 X129.512 Y67.195 E0.02581
G1 X129.693 Y66.758 E0.02581
G1 X129.940 Y66.356 E0.02581
G1 X130.246 Y65.996 E0.02581
G1 X130.606 Y65.690 E0.02581
G1 X131.008 Y65.443 E0.02581
G1 X131.445 Y65.262 E0.02581
G1 X131.904 Y65.152 E0.02581
G1 X132.335 Y65.118 E0.02364
G1 X137.415 Y65.118 E0.27751
G1 X137.846 Y65.152 E0.02364
G1 X138.305 Y65.262 E0.02581
G1 X138.742 Y65.443 E0.02581
G1 X139.144 Y65.690 E0.02581
G1 X139.504 Y65.996 E0.02581
G1 X139.810 Y66.356 E0.02581
G1 X140.057 Y66.758 E0.02581
G1 X140.238 Y67.195 E0.02581
G1 X140.348 Y67.654 E0.02581
G1 X140.382 Y68.085 E0.02364
G1 X140.382 Y84.972 E0.92261
G1 X140.348 Y85.403 E0.02364
G1 X140.238 Y85.862 E0.02581
G1 X140.057 Y86.299 E0.02581
G1 X139.810 Y86.702 E0.02581
G1 X139.504 Y87.061 E0.02581
G1 X139.144 Y87.368 E0.02581
G1 X138.742 Y87.614 E0.02581
G1 X138.305 Y87.795 E0.02581
G1 X137.846 Y87.905 E0.02581
G1 X137.220 Y87.955 E0.03429
G1 X137.075 Y87.989 E0.00815
G1 X136.909 Y88.061 E0.00990
G1 X136.675 Y88.232 E0.01583
G1 X136.493 Y88.483 E0.01692
G1 X136.397 Y88.777 E0.01692
G1 X136.382 Y88.972 E0.01065
G1 X136.382 Y121.028 E1.75145
G1 X136.397 Y121.223 E0.01065
G1 X136.434 Y121.374 E0.00849
G1 X136.574 Y121.650 E0.01692
G1 X136.675 Y121.768 E0.00849
G1 X136.926 Y121.950 E0.01692
G1 X137.220 Y122.045 E0.01692
G1 X137.846 Y122.095 E0.03429
G1 X138.305 Y122.205 E0.02581
G1 X138.742 Y122.386 E0.02581
G1 X139.144 Y122.632 E0.02581
G1 X139.504 Y122.939 E0.02581
G1 X139.810 Y123.298 E0.02581
G1 X140.057 Y123.701 E0.02581
G1 X140.238 Y124.138 E0.02581
G1 X140.348 Y124.597 E0.02581
G1 X140.382 Y125.028 E0.02364
G1 X140.382 Y141.915 E0.92261
G1 X140.348 Y142.346 E0.02364
G1 X140.238 Y142.805 E0.02581
G1 X140.057 Y143.242 E0.02581
G1 X139.810 Y143.644 E0.02581
G1 X139.504 Y144.004 E0.02581
G1 X139.144 Y144.310 E0.02581
G1 X138.742 Y144.557 E0.02581
G1 X138.305 Y144.738 E0.02581
G1 X137.846 Y144.848 E0.02581
G1 X137.415 Y144.882 E0.02364
G1 X132.335 Y144.882 E0.27751
G1 X131.904 Y144.848 E0.02364
G1 X131.445 Y144.738 E0.02581
G1 X131.008 Y144.557 E0.02581
G1 X130.606 Y144.310 E0.02581
G1 X130.246 Y144.004 E0.02581
G1 X129.940 Y143.644 E0.02581
G1 X129.693 Y143.242 E0.02581
G1 X129.512 Y142.805 E0.02581
G1 X129.402 Y142.346 E0.02581
G1 X129.368 Y141.920 E0.02335
G1 X129.357 Y140.892 E0.05617
G1 X129.296 Y140.882 E0.00341
G1 X120.642 Y140.892 E0.47281
G1 X120.632 Y141.915 E0.05588
G1 X120.598 Y142.346 E0.02364
G1 X120.488 Y142.805 E0.02581
G1 X120.307 Y143.242 E0.02581
G1 X120.060 Y143.644 E0.02581
G1 X119.754 Y144.004 E0.02581
G1 X119.394 Y144.310 E0.02581
G1 X118.992 Y144.557 E0.02581
G1 X118.555 Y144.738 E0.02581
G1 X118.096 Y144.848 E0.02581
G1 X117.665 Y144.882 E0.02364
G1 X112.585 Y144.882 E0.27751
G1 X112.154 Y144.848 E0.02364
G1 X111.695 Y144.738 E0.02581
G1 X111.258 Y144.557 E0.02581
G1 X110.856 Y144.310 E0.02581
G1 X110.496 Y144.004 E0.02581
G1 X110.190 Y143.644 E0.02581
G1 X109.943 Y143.242 E0.02581
G1 X109.762 Y142.805 E0.02581
G1 X109.652 Y142.346 E0.02581
G1 X109.618 Y141.915 E0.02364
G1 X109.618 Y125.028 E0.92261
G1 X109.652 Y124.597 E0.02364
G1 X109.762 Y124.138 E0.02581
G1 X109.943 Y123.701 E0.02581
G1 X110.190 Y123.298 E0.02581
G1 X110.496 Y122.939 E0.02581
G1 X110.856 Y122.632 E0.02581
G1 X111.258 Y122.386 E0.02581
G1 X111.695 Y122.205 E0.02581
G1 X112.154 Y122.095 E0.02581
G1 X112.780 Y122.045 E0.03429
G1 X112.925 Y122.011 E0.00815
G1 X113.091 Y121.939 E0.00990
G1 X113.325 Y121.768 E0.01583
G1 X113.422 Y121.654 E0.00815
G1 X113.515 Y121.499 E0.00990
G1 X113.603 Y121.223 E0.01583
G1 X113.618 Y121.028 E0.01065
G1 X113.618 Y88.972 E1.75145
G1 X113.603 Y88.783 E0.01032
G1 X113.507 Y88.483 E0.01724
G1 X113.325 Y88.232 E0.01692
G1 X113.074 Y88.050 E0.01692
G1 X112.780 Y87.955 E0.01692
G1 X112.154 Y87.905 E0.03429
G1 X111.695 Y87.795 E0.02581
G1 X111.258 Y87.614 E0.02581
G1 X110.856 Y87.368 E0.02581
G1 X110.496 Y87.061 E0.02581
G1 X110.190 Y86.702 E0.02581
G1 X109.943 Y86.299 E0.02581
G1 X109.762 Y85.862 E0.02581
G1 X109.652 Y85.403 E0.02581
G1 X109.618 Y84.972 E0.02364
G1 X109.618 Y68.085 E0.92261
G1 X109.652 Y67.654 E0.02364
G1 X109.762 Y67.195 E0.02581
G1 X109.943 Y66.758 E0.02581
G1 X110.190 Y66.356 E0.02581
G1 X110.496 Y65.996 E0.02581
G1 X110.856 Y65.690 E0.02581
G1 X111.258 Y65.443 E0.02581
G1 X111.695 Y65.262 E0.02581
G1 X112.154 Y65.152 E0.02581
G1 X112.585 Y65.118 E0.02364
G1 X117.665 Y65.118 E0.27751
G1 X118.096 Y65.152 E0.02364
G1 X118.555 Y65.262 E0.02581
G1 X118.992 Y65.443 E0.02581
G1 X119.394 Y65.690 E0.02581
G1 X119.754 Y65.996 E0.02581
G1 X120.060 Y66.356 E0.02581
G1 X120.307 Y66.758 E0.02581
G1 X120.488 Y67.195 E0.02581
G1 X120.598 Y67.654 E0.02581
G1 X120.632 Y68.080 E0.02335
G1 X120.642 Y69.048 E0.05290
G1 F5760
G1 X122.836 Y69.063 E-0.76000
G1 E-0.04000 F2100.00000
G1 Z0.800 F7200.000
G1 X129.832 Y69.585 F7200.000
G1 Z0.200 F7200.000
G1 E0.80000 F2100.00000
G1 F960
G1 X129.896 Y69.508 E0.00548
G1 X129.989 Y69.325 E0.01121
G1 X130.025 Y69.097 E0.01259
G1 X130.025 Y68.111 E0.05388
G1 X130.053 Y67.757 E0.01940
G1 X130.139 Y67.398 E0.02016
G1 X130.280 Y67.058 E0.02016
G1 X130.473 Y66.743 E0.02016
G1 X130.713 Y66.463 E0.02016
G1 X130.993 Y66.223 E0.02016
G1 X131.308 Y66.030 E0.02016
G1 X131.648 Y65.889 E0.02016
G1 X132.007 Y65.803 E0.02016
G1 X132.361 Y65.775 E0.01940
G1 X137.389 Y65.775 E0.27468
G1 X137.743 Y65.803 E0.01940
G1 X138.102 Y65.889 E0.02016
G1 X138.442 Y66.030 E0.02016
G1 X138.757 Y66.223 E0.02016
G1 X139.037 Y66.463 E0.02016
G1 X139.277 Y66.743 E0.02016
G1 X139.470 Y67.058 E0.02016
G1 X139.611 Y67.398 E0.02016
G1 X139.697 Y67.757 E0.02016
G1 X139.725 Y68.111 E0.01940
G1 X139.725 Y84.946 E0.91979
G1 X139.697 Y85.300 E0.01940
G1 X139.611 Y85.659 E0.02016
G1 X139.470 Y86.000 E0.02016
G1 X139.277 Y86.314 E0.02016
G1 X139.037 Y86.595 E0.02016
G1 X138.757 Y86.834 E0.02016
G1 X138.442 Y87.027 E0.02016
G1 X138.102 Y87.168 E0.02016
G1 X137.743 Y87.254 E0.02016
G1 X137.117 Y87.304 E0.03429
G1 X136.868 Y87.364 E0.01402
G1 X136.606 Y87.476 E0.01555
G1 X136.406 Y87.598 E0.01282
G1 X136.209 Y87.766 E0.01414
G1 X136.041 Y87.963 E0.01414
G1 X135.906 Y88.184 E0.01414
G1 X135.807 Y88.423 E0.01414
G1 X135.746 Y88.674 E0.01414
G1 X135.725 Y88.946 E0.01489
G1 X135.725 Y121.054 E1.75427
G1 X135.746 Y121.326 E0.01489
G1 X135.807 Y121.577 E0.01414
G1 X135.906 Y121.816 E0.01414
G1 X136.041 Y122.037 E0.01414
G1 X136.209 Y122.234 E0.01414
G1 X136.406 Y122.402 E0.01414
G1 X136.626 Y122.537 E0.01414
G1 X136.865 Y122.636 E0.01414
G1 X137.117 Y122.696 E0.01414
G1 X137.743 Y122.746 E0.03429
G1 X138.102 Y122.832 E0.02016
G1 X138.442 Y122.973 E0.02016
G1 X138.757 Y123.166 E0.02016
G1 X139.037 Y123.405 E0.02016
G1 X139.277 Y123.686 E0.02016
G1 X139.470 Y124.000 E0.02016
G1 X139.611 Y124.341 E0.02016
G1 X139.697 Y124.700 E0.02016
G1 X139.725 Y125.054 E0.01940
G1 X139.725 Y141.889 E0.91979
G1 X139.697 Y142.243 E0.01940
G1 X139.611 Y142.602 E0.02016
G1 X139.470 Y142.942 E0.02016
G1 X139.277 Y143.257 E0.02016
G1 X139.037 Y143.537 E0.02016
G1 X138.757 Y143.777 E0.02016
G1 X138.442 Y143.970 E0.02016
G1 X138.102 Y144.111 E0.02016
G1 X137.743 Y144.197 E0.02016
G1 X137.389 Y144.225 E0.01940
G1 X132.361 Y144.225 E0.27469
G1 X132.007 Y144.197 E0.01940
G1 X131.648 Y144.111 E0.02016
G1 X131.308 Y143.970 E0.02016
G1 X130.993 Y143.777 E0.02016
G1 X130.713 Y143.537 E0.02016
G1 X130.473 Y143.257 E0.02016
G1 X130.280 Y142.942 E0.02016
G1 X130.139 Y142.602 E0.02016
G1 X130.053 Y142.243 E0.02016
G1 X130.025 Y141.891 E0.01930
G1 X130.013 Y140.776 E0.06091
G1 X129.950 Y140.582 E0.01114
G1 X129.823 Y140.407 E0.01180
G1 X129.767 Y140.359 E0.00405
